X: 38616
T: Stoney Steps, The
R: reel
M: 4/4
K: Dmajor
A3B AF~F2|AFdf efdA|FA~A2 BzAF|1 EFGE FDDB:|2 EFGE FDDz||
fedc defg|azbf afeg|fded fded|(3Bcd af edeg|
fedc defg|azbf afeg|~f3a ~e3f|dfaf efdB||
A3B AF~F2|ABdf e2dA|FA~A2 BFAF|EFGE FDdB|
A^GAB AF~F2|ABdf e2dA|FA~A2 BFAF|EFGE FAde||
fd~d2 d2fg|a2bf afeg|fd~d2 dBAd|BFAF E3g|
fd~d2 d2fg|a2bf afeg|f3d e2de|fdaf efdB||

